Newaita/actions/16/gnumeric-format-thousand-separator.svg

<svg height="16" viewBox="0 0 16 16" width="16" xmlns="http://www.w3.org/2000/svg"><g fill="#424242"><path d="m3.804688 3.433594c-1.375 0-2.480469 1.105468-2.480469 2.480468v4.097657c0 1.375 1.105469 2.480469 2.480469 2.480469s2.480468-1.105469 2.480468-2.480469v-4.097657c0-1.375-1.105468-2.480468-2.480468-2.480468zm0 1.320312c.640624 0 1.15625.519532 1.15625 1.160156v4.097657c0 .644531-.515626 1.160156-1.15625 1.160156-.640626 0-1.160157-.515625-1.160157-1.160156v-4.097657c0-.640624.519531-1.160156 1.160157-1.160156zm0 0"/><path d="m7.609375 11.371094h.660156c.183594 0 .332031.148437.332031.332031v.660156c0 .183594-.148437.332031-.332031.332031h-.660156c-.183594 0-.332031-.148437-.332031-.332031v-.660156c0-.183594.148437-.332031.332031-.332031zm0 0"/><path d="m12.074219 3.433594c-1.375 0-2.480469 1.105468-2.480469 2.480468v4.097657c0 1.375 1.105469 2.480469 2.480469 2.480469 1.371093 0 2.480469-1.105469 2.480469-2.480469v-4.097657c0-1.375-1.109376-2.480468-2.480469-2.480468zm0 1.320312c.640625 0 1.15625.519532 1.15625 1.160156v4.097657c0 .644531-.515625 1.160156-1.15625 1.160156-.644531 0-1.160157-.515625-1.160157-1.160156v-4.097657c0-.640624.515626-1.160156 1.160157-1.160156zm0 0"/></g></svg>

<?xml version="1.0" encoding="UTF-8"?>
<svg xmlns="http://www.w3.org/2000/svg" xmlns:xlink="http://www.w3.org/1999/xlink" width="16px" height="16px" viewBox="0 0 16 16" version="1.1">
<g id="surface1">
<path style=" stroke:none;fill-rule:nonzero;fill:rgb(25.882354%,25.882354%,25.882354%);fill-opacity:1;" d="M 3.804688 3.433594 C 2.429688 3.433594 1.324219 4.539062 1.324219 5.914062 L 1.324219 10.011719 C 1.324219 11.386719 2.429688 12.492188 3.804688 12.492188 C 5.179688 12.492188 6.285156 11.386719 6.285156 10.011719 L 6.285156 5.914062 C 6.285156 4.539062 5.179688 3.433594 3.804688 3.433594 Z M 3.804688 4.753906 C 4.445312 4.753906 4.960938 5.273438 4.960938 5.914062 L 4.960938 10.011719 C 4.960938 10.65625 4.445312 11.171875 3.804688 11.171875 C 3.164062 11.171875 2.644531 10.65625 2.644531 10.011719 L 2.644531 5.914062 C 2.644531 5.273438 3.164062 4.753906 3.804688 4.753906 Z M 3.804688 4.753906 "/>
<path style=" stroke:none;fill-rule:nonzero;fill:rgb(25.882354%,25.882354%,25.882354%);fill-opacity:1;" d="M 7.609375 11.371094 L 8.269531 11.371094 C 8.453125 11.371094 8.601562 11.519531 8.601562 11.703125 L 8.601562 12.363281 C 8.601562 12.546875 8.453125 12.695312 8.269531 12.695312 L 7.609375 12.695312 C 7.425781 12.695312 7.277344 12.546875 7.277344 12.363281 L 7.277344 11.703125 C 7.277344 11.519531 7.425781 11.371094 7.609375 11.371094 Z M 7.609375 11.371094 "/>
<path style=" stroke:none;fill-rule:nonzero;fill:rgb(25.882354%,25.882354%,25.882354%);fill-opacity:1;" d="M 12.074219 3.433594 C 10.699219 3.433594 9.59375 4.539062 9.59375 5.914062 L 9.59375 10.011719 C 9.59375 11.386719 10.699219 12.492188 12.074219 12.492188 C 13.445312 12.492188 14.554688 11.386719 14.554688 10.011719 L 14.554688 5.914062 C 14.554688 4.539062 13.445312 3.433594 12.074219 3.433594 Z M 12.074219 4.753906 C 12.714844 4.753906 13.230469 5.273438 13.230469 5.914062 L 13.230469 10.011719 C 13.230469 10.65625 12.714844 11.171875 12.074219 11.171875 C 11.429688 11.171875 10.914062 10.65625 10.914062 10.011719 L 10.914062 5.914062 C 10.914062 5.273438 11.429688 4.753906 12.074219 4.753906 Z M 12.074219 4.753906 "/>
</g>
</svg>
